!!!!SEGMENT: pl-wtm--r-563-m--003_moniuszko-stanislaw--sonety-krymskie-epilog.krn
!!!cenid: 18xx:2985
!!!COM: Moniuszko, Stanisław
!!!COM-rismid: pe30008351
!!!CDT: 1819/05/05-1872/06/04
!!!CNT: Polish
!!!GTL: Sonety krymskie
!!!OTL: Epilog
!!!PDT: 1867
!!!AGN: Secular
!!!SMS-siglum: PL-Wtm
!!!SMS-shelfmark: R 563/M
!!!SMS-shelfwork: 003 G
!!!SMS-variant:
!!!SMS-altvar:
!!!NIFC-rismid: 1001096425
!!!URL-scan: http://repozytorium.nifc.pl/skany/pl-wtm-nut--r563m
!!!ONB-nifc: UWAGA: zawiera Sonety: 1. Cisza morska, 2. Burza, 3. Epilog
!!!key:
**kern	**kern	**dynam	**kern	**text
*part2	*part2	*part2	*part1	*part1
*staff3	*staff2	*	*staff1	*staff1
*Ipiano	*Ipiano	*	*Ivox	*
*I"[Piano]	*I"[Piano]	*	*I"[Voice]	*
*clefF4	*clefG2	*	*clefF4	*
*k[f#c#g#]	*k[f#c#g#]	*	*k[f#c#g#]	*
*c#:	*c#:	*	*c#:	*
*M4/4	*M4/4	*	*M4/4	*
*met(c)	*met(c)	*	*met(c)	*
=1	=1	=1	=1	=1
!	!	!LO:DY:b:t=pp.:rj	!LO:TX:i:a:t=No 9. Epilog.	!
!	!LO:TX:a:t=P:problem:znaki: f#cc#g#	!	!LO:TX:i:a:t=Lento, a tempo.	!
1G# 1E 1EE	1c#	pp	1r	.
=2	=2	=2	=2	=2
*	*	*	*2\right	*
1G# 1E	1c#	.	2c#\	Lu-
.	.	.	8G#\	-bię
.	.	.	8G#\	po-
.	.	.	8F#\	-glą-
.	.	.	8G#\	-dać
=3	=3	=3	=3	=3
*2\right	*2\right	*	*	*
2F# 2D#X\	2c#/	.	4.B\	wspar-
.	.	.	8A\	-tu
2G# 2BB#X\	2d#X/	.	8.G#\	na
.	.	.	16F#\	Ju-
.	.	.	8E\	-da-
.	.	.	8D\	-hu
!!LO:LB:g=original
=4	=4	=4	=4	=4
4r	4r	.	8F#\	ska-
.	.	.	8E\	-le
4G# 4C#\	4e 4c#/	.	4r	.
2r	2r	.	8.G#\	jak
.	.	.	16G#\	spie-
.	.	.	8c#\	-nio-
.	.	.	16d#X\	-ne
!	!	!	!LO:TX:i:a:t=un poco piu mosso.	!
.	.	.	16e\	bał-
=5||	=5||	=5||	=5||	=5||
*	*Xtuplet	*	*	*
!	!	!LO:DY:b:rj	!	!
2E 2BB\	(<24B</LL	p	4e\	-wa-
.	24e/	.	.	.
.	24g#/)	.	.	.
.	(<24b/	.	.	.
.	24g#/	.	.	.
.	24e/JJ)	.	.	.
*	*rep	*	*	*
.	(<24B</LL	.	8B\	-ny
.	24e/	.	.	.
.	24g#/)	.	.	.
.	(<24b/	.	16r	.
.	24g#/	.	.	.
.	.	.	16B\	to
.	24e/JJ)	.	.	.
*	*Xrep	*	*	*
*	*rep	*	*	*
2E 2D\	(<24B</LL	.	8A\L	w czar-
.	24e/	.	.	.
.	24g#/)	.	.	.
.	(<24b/	.	8G#\J	.
.	24g#/	.	.	.
.	24e/JJ)	.	.	.
*	*Xrep	*	*	*
*	*rep	*	*	*
.	(<24B</LL	.	8F#\	-ne
.	24e/	.	.	.
.	24g#/)	.	.	.
.	(<24b/	.	8E\	sze-
.	24g#/	.	.	.
.	24e/JJ)	.	.	.
*	*Xrep	*	*	*
!!LO:PB:g=original
=6	=6	=6	=6	=6
2E 2C#\	(<24A/LL	.	4A\	-re-
.	24e/	.	.	.
.	24a/)	.	.	.
.	(<24a/	.	.	.
.	24e/	.	.	.
.	24A/JJ)	.	.	.
*	*rep	*	*	*
.	(<24A/LL	.	8B,\	-gi
.	24e/	.	.	.
.	24a/)	.	.	.
.	(<24a/	.	8c#\	sci-
.	24e/	.	.	.
.	24A/JJ)	.	.	.
*	*Xrep	*	*	*
4F# 4BB\	(<24A/LL	.	8.d\	-sną-
.	24d/	.	.	.
.	24a/)	.	.	.
.	(<24a/	.	.	.
.	24f#/	.	.	.
.	.	.	16d\	-wszy
.	24d/JJ)	.	.	.
4G# 4E\	(<24d/LL	.	8.d,\	się
.	24e/	.	.	.
.	24b/)	.	.	.
.	(<24b/	.	.	.
.	24e/	.	.	.
.	.	.	16d\	bu-
.	24B/JJ)	.	.	.
=7	=7	=7	=7	=7
2A 2E 2AA\	(<24B/LL	.	8d\	-cha-
.	24e/	.	.	.
.	24g#/)	.	.	.
.	(<24a/	.	8c#\	-ją,
.	24e/	.	.	.
.	24c#/JJ)	.	.	.
.	(<24c#/LL	.	8r	.
.	24e/	.	.	.
.	24cc#/)	.	.	.
.	(<24cc#/	.	8c#\	to
.	24e/	.	.	.
.	24c#/JJ)	.	.	.
4A 4F#\	(<24c#/LL	.	4A\	jak
.	24e/	.	.	.
.	24a/)	.	.	.
.	(<24a/	.	.	.
.	24e/	.	.	.
.	24c#/JJ)	.	.	.
4F# 4E\	(<24c#/LL	.	8G#\	srebr-
.	24f#/	.	.	.
.	24a/)	.	.	.
.	(<24a/	.	8F#\	-ne
.	24f#/	.	.	.
.	24c#/JJ)	.	.	.
!!LO:LB:g=original
=8	=8	=8	=8	=8
2F# 2D\	(<24B/LL	.	8c#\	snie-
.	24f#/	.	.	.
.	24b/)	.	.	.
.	(<24b/	.	8B,\	-gi
.	24f#/	.	.	.
.	24B/JJ)	.	.	.
*	*rep	*	*	*
.	(<24B/LL	.	8B\	w mi-
.	24f#/	.	.	.
.	24b/)	.	.	.
.	(<24b/	.	16c#\LL	-lio-
.	24f#/	.	.	.
.	.	.	16d\JJ	.
.	24B/JJ)	.	.	.
*	*Xrep	*	*	*
4A 4C#\	(<24e/LL	.	4.e\	-no-
.	24g#/	.	.	.
.	24a/)	.	.	.
.	(<24a/	.	.	.
.	24g#/	.	.	.
.	24e/JJ)	.	.	.
4c# 4A\	(<24gn/LL	.	.	.
.	24a/	.	.	.
.	24ee/)	.	.	.
.	(<24ee/	.	8A\	-wych
.	24a/	.	.	.
.	24g/JJ)	.	.	.
=9	=9	=9	=9	=9
*^	*	*	*	*
4d 4A/	2.D\	(>24f#\LL	.	4.f#\	tę-
.	.	24dd\	.	.	.
.	.	24ff#\)	.	.	.
.	.	(>24ff#\	.	.	.
.	.	24dd\	.	.	.
.	.	24f#\JJ)	.	.	.
4A#X/	.	(>24f#\LL	.	.	.
.	.	24cc#\	.	.	.
.	.	24ff#\)	.	.	.
.	.	(>24ff#\	.	16A\	-czach
.	.	24cc#\	.	.	.
.	.	.	.	16A\	ko-
.	.	24f#\JJ)	.	.	.
2B/	.	(>24f#\LL	.	4e\	-łu-
.	.	24b\	.	.	.
.	.	24ff#\)	.	.	.
.	.	(>24ff#\	.	.	.
.	.	24b\	.	.	.
.	.	24f#\JJ)	.	.	.
.	4F# 4BB\	(>24f#\LL	.	8d\	-ją
.	.	24b\	.	.	.
.	.	24dd\JJ)	.	.	.
.	.	(>24d\LL	.	8B\	wspa-
.	.	24f#\	.	.	.
.	.	24b\JJ)	.	.	.
*v	*v	*	*	*	*
!!LO:LB:g=original
=10	=10	=10	=10	=10
*	*	*	*	*^
8E'>\L	16r	.	4e\j	-nia-	.
.	8aL 8e 8c#/	.	.	.	.
8A'>\J	.	.	.	.	.
.	8cc# 8a 8c#/	.	.	.	.
8E'>\L	.	.	8A\j	-le	.
.	8cc# 8a 8c#/	.	.	.	.
8A'>\J	.	.	8r	.	.
.	16cc#Jk 16a 16c#/	.	.	.	.
8E'>\L	16bKL 16e 16d/	.	8B\	trą-	trą-
.	8b 8e 8d/	.	.	.	.
8G#'>\J	.	.	(>16c#\	-cą	-cą
.	8b 8e 8d/	.	16d\)	się	.
8E'>\L	.	.	8c#\	o	.
.	8b 8e 8d/	.	.	.	.
8G#'>\J	.	.	8B\	mie-	.
.	16bJk 16e 16d/	.	.	.	.
*	*	*	*	*v	*v
=11	=11	=11	=11	=11
*rep	*rep	*	*	*
8E'>\L	16r	.	4B\	-li-
.	8aL 8e 8c#/	.	.	.
8A'>\J	.	.	.	.
.	8cc# 8a 8c#/	.	.	.
8E'>\L	.	.	8A,\	-znę,
.	8cc# 8a 8c#/	.	.	.
8A'>\J	.	.	8A\	i
.	16cc#Jk 16a 16c#/	.	.	.
8E'>\L	16bKL 16e 16d/	.	8G#\	roz-
.	8b 8e 8d/	.	.	.
8G#'>\J	.	.	8B\	-bi-
.	8b 8e 8d/	.	.	.
8E'>\L	.	.	8c#\	-ja-
.	8b 8e 8d/	.	.	.
8G#'>\J	.	.	8d\	-ją
.	16bJk 16e 16d/	.	.	.
*Xrep	*Xrep	*	*	*
!!LO:LB:g=original
=12	=12	=12	=12	=12
8E'>\L	16eKL 16c#/	.	4d\	fa-
.	8e 8c#/	.	.	.
8A'>\J	.	.	.	.
.	8cc# 8e 8c#/	.	.	.
8E'>\L	.	.	8c#\	-le
.	8e 8c#/	.	.	.
8A'>\J	.	.	16r	.
.	16cc#Jk 16e 16c#/	.	16c#\	jak
8E'>\L	16g#KL 16d/	.	8.e^\	woj-
.	8g# 8d/	.	.	.
8B'>\J	.	.	.	.
.	8b 8g# 8d/	.	16d\	-sko
8E'>\L	.	.	8c#\	wie-
.	8cc# 8g# 8d/	.	.	.
8B'>\J	.	.	8B\	-lo-
.	16ddJk 16g# 16d/	.	.	.
=13	=13	=13	=13	=13
8E'>\L	16cc#KL 16g# 16c#/	.	8c#\	-ry-
.	8cc# 8g#/	.	.	.
8c#'>\J	.	.	8G#,\	-bów
.	8cc# 8g#/	.	.	.
8E'>\L	.	.	8B\	za-
.	8cc# 8b 8g#/	.	.	.
8G#'>\J	.	.	8d\	-le-
.	16ddJk 16b 16g#/	.	.	.
8E#X'>\L	16cc#KL 16b 16g#\	.	8.c#\	-ga-
.	8cc# 8b 8g#\	.	.	.
8c#'>\J	.	.	.	.
.	8cc# 8b 8g#\	.	16B\	-jąc
8E#'>\L	.	.	8A\	mor-
.	8gg# 8cc# 8b\	.	.	.
8c#'>\J	.	.	8G#\	-skie
.	16bbJk 16gg# 16cc#\	.	.	.
=14	=14	=14	=14	=14
!	!	!LO:DY:b	!	!
8F#L 8FF#\	8cc#\L	f	8B\	brze-
16r	16r	.	8A\	-gi,
16f#Jk 16c# 16A 16F#\	16aaJk 16ff# 16cc# 16a\	.	.	.
8f# 8c# 8A 8F#\	8aa 8ff# 8cc# 8a\	.	8r	.
8r	8r	.	8c#\	w try-
2r	2r	.	8B\	-um-
.	.	.	8A\	-fie
.	.	.	8G#\	ląd
.	.	.	8F#\	zdo-
!!LO:LB:g=original
=15	=15	=15	=15	=15
!LO:TX:t=P:problem:mixed beam	!LO:DY:b	!	!	!
8AAL 8AAA/	8.r	f	4.f#\	-bę-
16r	.	.	.	.
16c#\Jk 16A\	16ff# 16cc# 16f#\	.	.	.
8c# 8A\	8ff# 8cc# 8f#\	.	.	.
8r	8r	.	8c#\	-dą
2r	2r	.	8d\	i
.	.	.	8c#\	na
.	.	.	8B\	po-
.	.	.	8c#\	-wrót
=16	=16	=16	=16	=16
!LO:TX:t=P:problem:mixed beam	!	!	!	!
8BBL 8BBB/	8.r	.	4e\	zbie-
16r	.	.	.	.
16d\Jk 16B\ 16F#\	16ff# 16b 16f#\	.	.	.
8dL 8B 8F#\	8ff#L 8b 8f#\	.	8d\	-gi
16r	16r	.	8r	.
16f#Jk 16d 16B\	16dddJk 16ff# 16dd\	.	.	.
8f# 8d 8B\	8ddd 8ff# 8dd\	.	4d\	mie-
8r	8r	.	.	.
4r	4r	.	8.A\	-cą
.	.	.	16B\	za
=17||	=17||	=17||	=17||	=17||
!	!	!LO:DY:b=2:rj	!LO:TX:i:a:t=Allegro.	!
[>1C# [<1CC#	16r	sf	2.c#\	so-
.	16ccc#\LL^<	.	.	.
.	16bb\	.	.	.
.	16aa\JJ	.	.	.
.	16gg#\LL	.	.	.
.	16aa\	.	.	.
.	16gg#\	.	.	.
.	16ff#\JJ	.	.	.
.	16ee\LL	.	.	.
.	16ff#\	.	.	.
.	16ee\	.	.	.
.	16dd\JJ	.	.	.
.	16cc#\LL	.	4c#\	-bą
.	16b\	.	.	.
.	16a\	.	.	.
.	16b\JJ	.	.	.
=18	=18	=18	=18	=18
1C#_> 1CC#_<	8cc#/L	.	2.f#^> 2.c#\	per-
.	16b/L	.	.	.
.	16a/JJ	.	.	.
.	16g#/LL	.	.	.
.	16a/	.	.	.
.	16g#/	.	.	.
.	16f#/JJ	.	.	.
.	16e/LL	.	.	.
.	16f#/	.	.	.
.	16e/	.	.	.
.	16d/JJ	.	.	.
.	16c#/LL	.	4c#\	-ły,
.	16B/	.	.	.
.	16A/	.	.	.
.	16B/JJ	.	.	.
=19	=19	=19	=19	=19
4C#] 4CC#/]	4c#/	.	4A^>\	mu-
4r	4r	.	4G#^>\	-szle
2ryy	2d^> 2B< 2F#</	.	4F#^>\	i
.	.	.	4d^>\	ko-
=20	=20	=20	=20	=20
1CC#^<	2r	.	1c#	-ra-
.	2c#< 2B< 2G#< 2E#X<^</	.	.	.
=21	=21	=21	=21	=21
1FF#	1A< 1F#<	.	4F#\	-le.
.	.	.	4r	.
.	.	.	2r	.
==	==	==	==	==
*-	*-	*-	*-	*-
!!!system-decoration: {<s1>(s2,s3)}
!!!RDF**kern: > = above
!!!RDF**kern: < = below
!!!AIN: 1 piano 1 vox
!!!ENC: Marcin Jachim
!!!END: 2021-08-17
!!!ENC: Antoni Szymański
!!!END: 2021-09-25
